X:979
T:Reel 979
M:4/4
K:Gmaj
L:1/8
G2|DGGB AGBc|dGBG AGEG|DGGB cAAg|dBcA BGAF|DG (3GFG DGBd|cBAB cdeg|dg (3gfg edBG|ABcA G2| (3def |g2ge fgaf|g2bg agef|gfge fgfa|gedB A2Gd|gfge fgaf|gabg agef|gfge fgfd|egfa gedB|
